icons/linear-new-office-doc-order.svg

<svg xmlns="http://www.w3.org/2000/svg" width="32px" height="32px" viewBox="0 0 32 32" version="1.1">
    <title>linear-new-office-doc-order</title>
    <g id="linear-new-office-doc-order" stroke-width="1" fill-rule="evenodd">
        <path d="M8,4 L8,6 L6,6 L6,28 L26,28 L26,6 L24,6 L24,4 L27,4 C27.5522847,4 28,4.44771525 28,5 L28,29 C28,29.5522847 27.5522847,30 27,30 L5,30 C4.44771525,30 4,29.5522847 4,29 L4,5 C4,4.44771525 4.44771525,4 5,4 L8,4 Z M21,20 C21.5522847,20 22,20.4477153 22,21 C22,21.5522847 21.5522847,22 21,22 L11,22 C10.4477153,22 10,21.5522847 10,21 C10,20.4477153 10.4477153,20 11,20 L21,20 Z M21,14 C21.5522847,14 22,14.4477153 22,15 C22,15.5522847 21.5522847,16 21,16 L11,16 C10.4477153,16 10,15.5522847 10,15 C10,14.4477153 10.4477153,14 11,14 L21,14 Z M21,2 C21.5522847,2 22,2.44771525 22,3 L22,7 C22,7.55228475 21.5522847,8 21,8 L11,8 C10.4477153,8 10,7.55228475 10,7 L10,3 C10,2.44771525 10.4477153,2 11,2 L21,2 Z M20,4 L12,4 L12,6 L20,6 L20,4 Z" id="&#24418;&#29366;" fill-rule="nonzero" />
    </g>
</svg>

<svg xmlns="http://www.w3.org/2000/svg" viewBox="0 0 32 32"><path fill="currentColor" d="M8 4v2H6v22h20V6h-2V4h3a1 1 0 0 1 1 1v24a1 1 0 0 1-1 1H5a1 1 0 0 1-1-1V5a1 1 0 0 1 1-1zm13 16a1 1 0 0 1 0 2H11a1 1 0 0 1 0-2zm0-6a1 1 0 0 1 0 2H11a1 1 0 0 1 0-2zm0-12a1 1 0 0 1 1 1v4a1 1 0 0 1-1 1H11a1 1 0 0 1-1-1V3a1 1 0 0 1 1-1zm-1 2h-8v2h8z"/></svg>
